X:89
T:B089-  Courtiers, courtiers, think it no harm
Q:1/4=120
L:1/4
M:6/4
K:Em
G2EG2A|B3/2c/2BE2F|G3/2A/2Be2B|G2F/2E/2E2E|\
G2EG2A|B3/2c/2BE2F|G3/2A/2Be2B|G2F/2E/2E2f/2f/2|\
g3/2f/2e^d3/2e/2d|(eE)EE2F|G3/2A/2Bd2B|d2BA2F|\
G3/2A/2Be2B|G2F/2E/2E3|]

